svg/white/rap.svg

<svg width="32" height="32" viewBox="0 0 32 32" version="1.1" xmlns="http://www.w3.org/2000/svg" xmlns:xlink="http://www.w3.org/1999/xlink"><title>svg/white/rap</title><desc>Created with Sketch.</desc><g id="white/rap" stroke="none" stroke-width="1" fill="none" fill-rule="evenodd"><path d="M16,32 C7.163444,32 0,24.836556 0,16 C0,7.163444 7.163444,0 16,0 C24.836556,0 32,7.163444 32,16 C32,24.836556 24.836556,32 16,32 Z M12.4782609,6.43478261 L12.4782609,6 L9,6 L9,25.9130435 L12.4782609,25.9130435 L12.4782609,6.43478261 Z M14.9565217,6 L15,6 L15,9.2173913 L16.5217391,9.2173913 C18.7391304,9.2173913 20.1304348,10.2173913 20.1304348,12.173913 C20.1304348,14.1304348 18.7391304,15.1304348 16.5217391,15.1304348 L13.173913,15.1304348 L20.1304348,25.9130435 L24.2173913,25.9130435 L19.1304348,18.173913 C22.0434783,17.4347826 23.6521739,15.173913 23.6521739,12.2173913 C23.6521739,8.56521739 20.9565217,6 16.9130435,6 L14.9565217,6 Z" id="Combined-Shape" fill="#FFF" fill-rule="nonzero"/></g></svg>

<svg width="32" height="32" viewBox="0 0 32 32" xmlns="http://www.w3.org/2000/svg"><path d="M16 32C7.163 32 0 24.837 0 16S7.163 0 16 0s16 7.163 16 16-7.163 16-16 16zM12.478 6.435V6H9v19.913h3.478V6.435zM14.957 6H15v3.217h1.522c2.217 0 3.608 1 3.608 2.957 0 1.956-1.39 2.956-3.608 2.956h-3.348l6.956 10.783h4.087l-5.087-7.74c2.913-.738 4.522-3 4.522-5.956C23.652 8.565 20.957 6 16.913 6h-1.956z" fill="#FFF"/></svg>
